!!!COM:	Bach, Johann Sebastian
!!!OMV:	In dich hab ich gehoffet, Herr
!!!OTL:	In dich hab ich gehoffet, Herr
**kern	**fb	**kern	**kern	**kern	**kern
*part5	*part5	*part4	*part3	*part2	*part1
*staff5	*	*staff4	*staff3	*staff2	*staff1
*I"Continuo	*	*I"Voice	*I"Voice	*I"Voice	*I"Voice
*I'Cont.	*	*I'V	*I'V	*I'V	*I'V
*clefF4	*	*clefF4	*clefGv2	*clefG2	*clefG2
*Trd0c0	*	*	*	*	*
*k[b-e-]	*	*k[b-e-]	*k[b-e-]	*k[b-e-]	*k[b-e-]
*M4/4	*	*M4/4	*M4/4	*M4/4	*M4/4
8B-L	.	8B-L	4d	4f	4b-
8AJ	.	8AJ	.	.	.
=2	=2	=2	=2	=2	=2
4G	5	4G	8dL	4g	4b-
.	6	.	8e-J	.	.
4D	5	4D	4f	8aL	4ff
.	6	.	.	8b-J	.
4A	6	4A	4f	4cc	4ff
[4B-	4	[4B-	8gL	8b-L	8ee-L
.	3	.	8fJ	8aJ	8ddJ
=3	=3	=3	=3	=3	=3
4B-]	6 4 2	4B-]	4e-	4g	4cc
4A-X	6 4 2	4A-X	4f	4f	4dd
8GL	6	8GL	4B-	4b-	8ee-L
8E-J	7 5	8E-J	.	.	8ddJ
4F	.	4F	8fL	4a	4cc
.	.	.	8e-J	.	.
=4	=4	=4	=4	=4	=4
4BB-;	.	4BB-;	4d;	4f;	4b-;
4E-	.	4E-	4e-	4g	4b-
4AA	#6\ 5	4AA	4e-	4f#X	4cc
4BBn	6 nr5	4BBn	4d	4fn	4dd
=5	=5	=5	=5	=5	=5
8CL	.	8CL	4G	8e-L	4ee-
8DJ	.	8DJ	.	8fJ	.
4E-	6	4E-	8GL	4g	4cc
.	.	.	8AJ	.	.
8DL	6	8DL	8B-L	4.f	4ff
8CJ	.	8CJ	8cJ	.	.
8BB-L	6 5	8BB-L	8dL	.	4gg
8CJ	n	8CJ	8cJ	8en	.
=6	=6	=6	=6	=6	=6
4F;	.	4F;	4c;	4a;	4ff;
4F#X	6 5	4F#X	4c	4a	4dd
4G	5	4G	8B-L	4g	8ddL
.	6	.	8cJ	.	8ee-J
4A-X	6	4A-X	8dL	4f	4ff
.	.	.	8e-J	.	.
=7	=7	=7	=7	=7	=7
!!linebreak:original
4A	6 5	4An	4f	4cc	4ee-
8B-L	.	8B-L	4f	4b-	8ddL
8AJ	.	8AJ	.	.	8ccJ
8GL	.	8GL	4g	4d	8b-L
8FJ	.	8FJ	.	.	8cc
4En	7 5	4En	4B-	4g	8dd
.	6	.	.	.	8ccJ
=8	=8	=8	=8	=8	=8
4F;	.	4F;	4A;	4f;	4cc;
4BB-	.	4BB-	8B-L	4f	4dd
.	.	.	8AJ	.	.
4E-	5 3	4E-	4G	8gL	8b-L
.	6 4	.	.	8aJ	8ccJ
4D	nr6	4D	4F	4bn	4dd
=9	=9	=9	=9	=9	=9
4C;	.	4C;	4G;	4cc;	4ee-;
4G	-	4G	8gL	4b-	4dd
.	.	.	8fJ	.	.
8A-XL	5	8A-XL	4e-	4b-	4cc
8GJ	.	8GJ	.	.	.
4F	6 -	4F	4f	4a-X	4dd
=10	=10	=10	=10	=10	=10
4E-;	.	4E-;	4B-;	4g;	4ee-;
4BB-	.	4BB-	4B-	4f	4dd
4F	.	4F	4An	8fL	4cc
.	.	.	.	8e-J	.
4G	5	4G	4B-	8dL	4b-
.	6	.	.	8e-J	.
=11	=11	=11	=11	=11	=11
8AL	6	8AL	2.c	8fL	4.ff
8GJ	._	8GJ	.	8gJ	.
4F	8	4F	.	2a	.
.	7	.	.	.	8ee-
4F#X	6 5	4F#X	.	.	4dd
8GL	6	8GL	4B-	4g	8ee-L
8FnJ	6 4 2	8FnJ	.	.	8ddJ
=12	=12	=12	=12	=12	=12
4En	6 5	4En	4B-	4g	2cc
4F	.	4F	4A	8fL	.
.	.	.	.	8e-J	.
4BB-;	.	4BB-;	4F;	4d;	4b-;
=||	=||	=||	=||	=||	=||
*-	*-	*-	*-	*-	*-
!!!system-decoration: s1,s2,s3,s4,s5
